icon/close.svg

<svg xmlns="http://www.w3.org/2000/svg" width="8" height="7" fill="none"><path fill="#000" fill-rule="evenodd" d="M0 0h2v1h1v1h2V1h1V0h2v1H7v1H6v1H5v1h1v1h1v1h1v1H6V6H5V5H3v1H2v1H0V6h1V5h1V4h1V3H2V2H1V1H0z" clip-rule="evenodd" style="fill:#fff"/></svg>

<?xml version="1.0" encoding="UTF-8" standalone="no"?>
<svg
   width="8"
   height="7"
   viewBox="0 0 8 7"
   fill="none"
   version="1.1"
   id="svg1"
   sodipodi:docname="close.svg"
   inkscape:version="1.4.2 (ebf0e940d0, 2025-05-08)"
   xmlns:inkscape="http://www.inkscape.org/namespaces/inkscape"
   xmlns:sodipodi="http://sodipodi.sourceforge.net/DTD/sodipodi-0.dtd"
   xmlns="http://www.w3.org/2000/svg"
   xmlns:svg="http://www.w3.org/2000/svg">
  <defs
     id="defs1" />
  <sodipodi:namedview
     id="namedview1"
     pagecolor="#ffffff"
     bordercolor="#000000"
     borderopacity="0.25"
     inkscape:showpageshadow="2"
     inkscape:pageopacity="0.0"
     inkscape:pagecheckerboard="0"
     inkscape:deskcolor="#d1d1d1"
     inkscape:zoom="114.28571"
     inkscape:cx="4.003125"
     inkscape:cy="3.5"
     inkscape:window-width="1920"
     inkscape:window-height="1011"
     inkscape:window-x="0"
     inkscape:window-y="0"
     inkscape:window-maximized="1"
     inkscape:current-layer="svg1" />
  <path
     fill-rule="evenodd"
     clip-rule="evenodd"
     d="M0 0H1H2V1H3V2H4H5V1H6V0H7H8V1H7V2H6V3H5V4H6V5H7V6H8V7H7H6V6H5V5H4H3V6H2V7H1H0V6H1V5H2V4H3V3H2V2H1V1H0V0Z"
     fill="black"
     id="path1"
     style="fill:#ffffff" />
</svg>
